; generated by Slic3r 0.8.4 on 2012-08-17 at 23:57:48

; layer_height = 0.3
; perimeters = 3
; solid_layers = 3
; fill_density = .4
; nozzle_diameter = 0.5
; filament_diameter = 2.75
; extrusion_multiplier = 1.25
; perimeter_speed = 40
; infill_speed = 70
; travel_speed = 100
; scale = 1
; single wall width = 0.50mm

M107
M104 S190
G28
G1 Z2
G1 X170 F8000.0
M109 S191
G1 Z0.3
G92 E0.0
G1 E15.0 F200.0
G90
G21
G92 E0
M82
G1 Z0.300 F6000.000
G1 X69.536 Y96.031
G1 F900.000 E1.00000
G1 X69.671 Y96.075 F968.440 E1.00448
G1 X69.671 Y97.147 E1.03833
G1 X69.913 Y97.224 E1.04633
G1 X70.171 Y96.863 E1.06036
G1 X70.379 Y96.738 E1.06800
G1 X70.379 Y95.590 E1.10422
G1 X71.090 Y95.426 E1.12727
G1 X71.776 Y95.345 E1.14904
G1 X71.776 Y95.345 E1.14904
G1 X71.957 Y95.324 E1.15481
G1 X74.843 Y95.374 E1.24589
G1 X79.496 Y95.738 E1.39317
G1 X79.496 Y95.733 E1.39334
G1 X79.671 Y95.743 E1.39889
G1 X79.671 Y96.711 E1.42945
G1 X80.379 Y96.750 E1.45181
G1 X80.379 Y95.782 E1.48236
G1 X89.671 Y96.021 E1.77572
G1 X89.671 Y96.978 E1.80592
G1 X90.379 Y96.991 E1.82825
G1 X90.379 Y96.034 E1.85844
G1 X100.079 Y96.208 E2.16461
G1 X100.079 Y96.208 E2.16461
G1 X113.065 Y96.274 E2.57443
G1 X119.715 Y96.174 E2.78431
G1 X120.383 Y96.174 E2.80539
G1 X120.962 Y96.595 E2.82797
G1 X121.175 Y97.251 E2.84976
G1 X121.175 Y97.399 E2.85441
G1 X120.962 Y98.055 E2.87620
G1 X120.402 Y98.462 E2.89802
G1 X117.129 Y99.484 E3.00625
G1 X117.129 Y99.484 E3.00625
G1 X116.949 Y99.537 E3.01216
G1 X116.949 Y99.537 E3.01217
G1 X110.079 Y101.386 E3.23669
G1 X110.079 Y101.386 E3.23669
G1 X100.189 Y103.377 E3.55505
G1 X100.189 Y103.377 E3.55505
G1 X100.079 Y103.396 E3.55858
G1 X100.079 Y103.396 E3.55858
G1 X98.297 Y103.687 E3.61555
G1 X98.297 Y103.687 E3.61555
G1 X95.442 Y104.026 E3.70628
G1 X95.442 Y104.026 E3.70628
G1 X95.437 Y104.027 E3.70645
G1 X95.437 Y104.027 E3.70645
G1 X90.379 Y104.493 E3.86675
G1 X90.379 Y103.519 E3.89749
G1 X89.671 Y103.572 E3.91987
G1 X89.671 Y104.536 E3.95031
G1 X84.835 Y104.676 E4.10298
G1 X84.211 Y104.676 E4.12268
G1 X81.801 Y104.525 E4.19888
G1 X80.379 Y104.336 E4.24418
G1 X80.379 Y103.343 E4.27549
G1 X79.671 Y103.249 E4.29801
G1 X79.671 Y104.253 E4.32970
G1 X77.528 Y103.771 E4.39905
G1 X75.718 Y103.218 E4.45877
G1 X75.689 Y103.207 E4.45972
G1 X75.689 Y103.207 E4.45972
G1 X74.105 Y102.613 E4.51313
G1 X72.743 Y101.907 E4.56153
G1 X72.616 Y101.832 E4.56618
G1 X72.616 Y101.832 E4.56618
G1 X71.634 Y101.252 E4.60221
G1 X71.124 Y100.881 E4.62208
G1 X70.379 Y100.267 E4.65256
G1 X70.379 Y98.926 E4.69490
G1 X69.923 Y98.243 E4.72080
G1 X69.671 Y98.319 E4.72911
G1 X69.671 Y99.397 E4.76312
G1 X69.522 Y99.442 E4.76804
G1 X69.180 Y98.929 E4.78752
G1 X68.823 Y97.789 E4.82521
G1 X68.878 Y97.293 E4.84095
G1 X69.081 Y96.669 E4.86167
G1 X69.492 Y96.092 E4.88403
G1 F900.000 E3.88403
G92 E0
G1 X114.203 Y101.082 F6000.000
G1 F900.000 E1.00000
G1 X108.015 Y102.594 F968.440 E1.20104
G1 X108.015 Y102.599 E1.20120
G1 X104.671 Y103.288 E1.30895
G1 X104.671 Y103.288 E1.30895
G1 X98.672 Y104.329 E1.50109
G1 X98.631 Y104.334 E1.50238
G1 X98.631 Y104.334 E1.50238
G1 X90.235 Y105.177 E1.76870
G1 X85.142 Y105.327 E1.92949
G1 X83.912 Y105.327 E1.96830
G1 X81.522 Y105.178 E2.04388
G1 X79.283 Y104.879 E2.11513
G1 X77.597 Y104.500 E2.16969
G1 X77.597 Y104.524 E2.17046
G1 X75.505 Y103.885 E2.23947
G1 X73.918 Y103.290 E2.29297
G1 X72.580 Y102.596 E2.34055
G1 X71.489 Y101.952 E2.38051
G1 X70.499 Y101.232 E2.41915
G1 X69.656 Y100.538 E2.45363
G1 X69.022 Y99.953 E2.48084
G1 X68.643 Y99.385 E2.50238
G1 X68.266 Y98.224 E2.54088
G1 X68.266 Y98.224 E2.54088
G1 X68.127 Y97.761 E2.55614
G1 X68.172 Y97.357 E2.56898
G1 X68.542 Y96.218 E2.60678
G1 X68.765 Y95.906 E2.61885
G1 X69.740 Y95.198 E2.65688
G1 X70.214 Y94.914 E2.67433
G1 X70.833 Y94.771 E2.69437
G1 X71.666 Y94.673 E2.72085
G1 X75.134 Y94.723 E2.83032
G1 X85.391 Y95.323 E3.15456
G1 X98.390 Y95.523 E3.56484
G1 X98.390 Y95.523 E3.56484
G1 X112.758 Y95.623 E4.01827
G1 X115.813 Y95.577 E4.11469
G1 X115.813 Y95.576 E4.11469
G1 X119.408 Y95.523 E4.22815
G1 X120.594 Y95.523 E4.26558
G1 X121.515 Y96.192 E4.30152
G1 X121.884 Y97.325 E4.33911
G1 X121.515 Y98.458 E4.37670
G1 X120.575 Y99.141 E4.41340
G1 X114.275 Y101.061 E4.62122
G1 F900.000 E3.62122
G92 E0
G1 X99.873 Y102.714 F6000.000
G1 F900.000 E1.00000
G1 X99.765 Y102.550 F968.440 E1.00620
G1 X99.877 Y102.630 F6000.000
G1 X99.913 Y102.599 F968.440 E1.00769
G1 X100.085 Y102.399 E1.01602
G1 X99.979 Y102.806 F6000.000
G1 X99.873 Y102.714 F968.440 E1.02044
G1 X99.645 Y102.999 E1.03194
G1 F900.000 E0.03194
G92 E0
G1 X100.155 Y97.212 F6000.000
G1 F900.000 E1.00000
G1 X100.042 Y97.141 F968.440 E1.00419
G1 X99.928 Y96.998 E1.00997
G1 X99.913 Y96.986 E1.01057
G1 X99.912 Y96.987 F6000.000
G1 X99.757 Y96.735 F968.440 E1.01991
G1 X99.908 Y96.874 F6000.000
G1 X100.007 Y96.783 F968.440 E1.02415
G1 X99.912 Y96.987 F6000.000
G1 X99.852 Y97.089 F968.440 E1.02786
G1 F900.000 E0.02786
G92 E0
G1 X109.762 Y97.140 F6000.000
G1 F900.000 E1.00000
G1 X109.773 Y97.118 F968.440 E1.00076
G1 X109.875 Y96.978 E1.00624
G1 X109.762 Y96.859 E1.01143
G1 X109.875 Y96.978 F6000.000
G1 X109.988 Y96.859 F968.440 E1.01661
G1 X109.875 Y97.021 F6000.000
G1 X109.977 Y97.118 F968.440 E1.02107
G1 X109.988 Y97.140 E1.02183
G1 F900.000 E0.02183
G92 E0
G1 X110.097 Y100.353 F6000.000
G1 F900.000 E1.00000
G1 X109.861 Y100.599 F968.440 E1.01075
G1 X109.800 Y100.569 E1.01292
G1 X109.874 Y100.610 F6000.000
G1 X109.653 Y100.978 F968.440 E1.02647
G1 X109.876 Y100.721 F6000.000
G1 X109.950 Y100.762 F968.440 E1.02917
G1 F900.000 E0.02917
G92 E0
G1 X70.095 Y98.008 F6000.000
G1 F900.000 E1.00000
G1 X70.044 Y97.856 F968.440 E1.00505
G1 X69.876 Y97.812 E1.01053
G1 X69.831 Y97.765 E1.01258
G1 X69.778 Y97.734 E1.01453
G1 X69.718 Y97.735 E1.01642
G1 X69.640 Y97.832 F6000.000
G1 X69.718 Y97.735 F968.440 E1.02033
G1 X69.639 Y97.631 E1.02445
M106 S255
M104 S185
G1 F900.000 E0.02445
G92 E0
G1 Z0.600 F6000.000
G1 X70.021 Y97.073
G1 F900.000 E1.00000
G1 X70.171 Y96.862 F975.503 E1.00817
G1 X70.679 Y96.558 E1.02685
G1 X70.679 Y95.521 E1.05957
G1 X71.090 Y95.426 E1.07291
G1 X71.957 Y95.324 E1.10045
G1 X74.843 Y95.374 E1.19153
G1 X79.371 Y95.727 E1.33488
G1 X79.371 Y96.694 E1.36540
G1 X80.679 Y96.767 E1.40672
G1 X80.679 Y95.799 E1.43728
G1 X89.371 Y96.015 E1.71168
G1 X89.371 Y96.972 E1.74190
G1 X90.679 Y96.997 E1.78316
G1 X90.679 Y96.040 E1.81336
G1 X99.779 Y96.203 E2.10058
G1 X99.779 Y96.203 E2.10058
G1 X113.065 Y96.274 E2.51988
G1 X119.715 Y96.174 E2.72976
G1 X120.383 Y96.174 E2.75084
G1 X120.962 Y96.595 E2.77341
G1 X121.175 Y97.251 E2.79520
G1 X121.175 Y97.399 E2.79986
G1 X120.962 Y98.055 E2.82165
G1 X120.402 Y98.462 E2.84347
G1 X116.747 Y99.597 E2.96426
G1 X116.747 Y99.597 E2.96426
G1 X109.779 Y101.458 E3.19186
G1 X109.779 Y101.458 E3.19186
G1 X99.779 Y103.446 E3.51362
G1 X99.779 Y103.446 E3.51362
G1 X98.088 Y103.712 E3.56762
G1 X98.088 Y103.712 E3.56762
G1 X95.187 Y104.053 E3.65981
G1 X95.187 Y104.053 E3.65981
G1 X90.679 Y104.471 E3.80270
G1 X90.679 Y103.497 E3.83343
G1 X89.371 Y103.594 E3.87480
G1 X89.371 Y104.548 E3.90491
G1 X84.835 Y104.676 E4.04811
G1 X84.211 Y104.676 E4.06781
G1 X81.801 Y104.525 E4.14401
G1 X80.679 Y104.376 E4.17975
G1 X80.679 Y103.383 E4.21107
G1 X79.371 Y103.209 E4.25269
G1 X79.371 Y104.186 E4.28351
G1 X77.528 Y103.771 E4.34315
G1 X75.718 Y103.218 E4.40288
G1 X74.105 Y102.613 E4.45723
G1 X73.848 Y102.480 E4.46638
G1 X73.848 Y102.480 E4.46638
G1 X72.743 Y101.907 E4.50564
G1 X71.634 Y101.252 E4.54631
G1 X71.124 Y100.881 E4.56618
G1 X70.679 Y100.514 E4.58440
G1 X70.679 Y99.221 E4.62522
G1 X70.410 Y98.973 E4.63675
G1 X69.993 Y98.347 E4.66049
G1 X69.371 Y98.438 E4.68032
G1 X69.371 Y98.563 E4.68425
G1 X69.068 Y98.607 E4.69392
G1 X68.823 Y97.789 E4.72088
G1 X68.951 Y96.630 E4.75768
G1 X69.371 Y96.653 E4.77095
G1 X69.371 Y96.865 E4.77764
G1 X69.949 Y97.050 E4.79679
G1 X69.828 Y99.001 F6000.000
G1 X70.027 Y99.300 F975.503 E4.80813
G1 X70.179 Y99.440 E4.81463
G1 X70.179 Y100.096 E4.83535
G1 X69.999 Y100.175 E4.84153
G1 X69.405 Y99.626 E4.86708
G1 X69.063 Y99.113 E4.88651
G1 X69.754 Y99.012 E4.90854
G1 X68.643 Y99.385 F6000.000
G1 X68.127 Y97.761 F975.503 E4.96230
G1 X68.172 Y97.357 E4.97514
G1 X68.418 Y96.600 E5.00024
G1 X68.418 Y96.600 E5.00024
G1 X68.617 Y95.989 E5.02053
G1 X68.694 Y96.006 E5.02302
G1 X68.765 Y95.906 E5.02687
G1 X69.740 Y95.198 E5.06490
G1 X70.214 Y94.914 E5.08234
G1 X70.833 Y94.771 E5.10239
G1 X71.666 Y94.673 E5.12886
G1 X75.134 Y94.723 E5.23834
G1 X85.391 Y95.323 E5.56257
G1 X98.390 Y95.523 E5.97285
G1 X98.390 Y95.523 E5.97285
G1 X112.758 Y95.623 E6.42628
G1 X115.813 Y95.577 E6.52270
G1 X115.813 Y95.576 E6.52270
G1 X119.408 Y95.523 E6.63616
G1 X120.594 Y95.523 E6.67360
G1 X121.515 Y96.192 E6.70953
G1 X121.884 Y97.325 E6.74712
G1 X121.515 Y98.458 E6.78472
G1 X120.575 Y99.141 E6.82141
G1 X107.860 Y102.631 E7.23749
G1 X98.672 Y104.329 E7.53237
G1 X98.543 Y104.344 E7.53648
G1 X98.543 Y104.344 E7.53648
G1 X90.235 Y105.177 E7.79998
G1 X85.142 Y105.327 E7.96077
G1 X83.912 Y105.327 E7.99959
G1 X81.522 Y105.178 E8.07516
G1 X79.283 Y104.879 E8.14642
G1 X77.543 Y104.488 E8.20272
G1 X77.543 Y104.508 E8.20335
G1 X75.505 Y103.885 E8.27059
G1 X73.918 Y103.290 E8.32408
G1 X72.580 Y102.596 E8.37166
G1 X71.489 Y101.952 E8.41162
G1 X70.499 Y101.232 E8.45027
G1 X69.656 Y100.538 E8.48474
G1 X69.022 Y99.953 E8.51196
G1 X68.685 Y99.447 E8.53113
G1 F900.000 E7.53113
G92 E0
G1 X99.537 Y102.800 F6000.000
G1 F900.000 E1.00000
G1 X99.577 Y102.680 F975.503 E1.00401
G1 X99.465 Y102.600 E1.00836
G1 X99.577 Y102.680 F6000.000
G1 X99.613 Y102.649 F975.503 E1.00984
G1 X99.785 Y102.449 E1.01818
G1 X99.573 Y102.770 F6000.000
G1 X99.685 Y102.850 F975.503 E1.02252
G1 X99.537 Y102.800 F6000.000
G1 X99.365 Y103.001 F975.503 E1.03086
G1 F900.000 E0.03086
G92 E0
G1 X99.849 Y97.207 F6000.000
G1 F900.000 E1.00000
G1 X99.575 Y96.947 F975.503 E1.01193
G1 X99.571 Y96.907 F6000.000
G1 X99.707 Y96.779 F975.503 E1.01783
G1 X99.390 Y96.727 F6000.000
G1 X99.571 Y96.907 F975.503 E1.02590
G1 X99.498 Y97.035 E1.03055
G1 F900.000 E0.03055
G92 E0
G1 X109.462 Y97.140 F6000.000
G1 F900.000 E1.00000
G1 X109.473 Y97.118 F975.503 E1.00077
G1 X109.578 Y97.018 E1.00533
G1 X109.462 Y96.859 E1.01155
G1 X109.575 Y96.978 F6000.000
G1 X109.717 Y96.842 F975.503 E1.01775
G1 X109.578 Y97.018 F6000.000
G1 X109.619 Y97.054 F975.503 E1.01948
G1 X109.688 Y97.154 E1.02331
G1 X109.844 Y97.266 E1.02937
G1 F900.000 E0.02937
G92 E0
G1 X109.797 Y100.424 F6000.000
G1 F900.000 E1.00000
G1 X109.561 Y100.670 F975.503 E1.01075
G1 X109.500 Y100.640 E1.01292
G1 X109.574 Y100.682 F6000.000
G1 X109.353 Y101.050 F975.503 E1.02647
G1 X109.576 Y100.792 F6000.000
G1 X109.650 Y100.834 F975.503 E1.02917
G1 F900.000 E0.02917
G92 E0
G1 X69.710 Y97.808 F6000.000
G1 F900.000 E1.00000
G1 X69.574 Y97.660 F975.503 E1.00634
G1 X69.554 Y97.639 F6000.000
G1 X69.656 Y97.620 F975.503 E1.00963
G1 X69.554 Y97.639 F6000.000
G1 X69.418 Y97.455 F975.503 E1.01686
G1 X69.403 Y97.413 E1.01827
G1 X69.304 Y97.306 E1.02287
G1 X69.575 Y97.697 F6000.000
G1 X69.467 Y97.826 F975.503 E1.02817
G1 X69.387 Y97.916 E1.03196
G1 X70.014 Y96.250 F6000.000
G1 X69.956 Y95.956 F1707.130 E1.04144
G1 X69.977 Y95.925 F6000.000
G1 X69.609 Y96.036 F1707.130 E1.05357
G1 X69.582 Y96.074 E1.05504
G1 F900.000 E0.05504
G92 E0
G1 Z0.900 F6000.000
G1 X69.479 Y96.193
G1 F900.000 E1.00000
G1 X69.883 Y95.899 F961.746 E1.01578
G1 X70.568 Y95.488 E1.04097
G1 X70.979 Y95.721 E1.05588
G1 X70.979 Y95.439 E1.06476
G1 X71.957 Y95.324 E1.09586
G1 X74.843 Y95.374 E1.18693
G1 X79.071 Y95.700 E1.32078
G1 X79.071 Y95.709 E1.32108
G1 X80.265 Y95.776 E1.35881
G1 X80.265 Y95.776 E1.35881
G1 X80.571 Y95.793 E1.36849
G1 X80.571 Y95.794 E1.36854
G1 X89.071 Y96.009 E1.63687
G1 X89.071 Y96.009 E1.63687
G1 X90.979 Y96.046 E1.69707
G1 X90.979 Y96.046 E1.69707
G1 X99.479 Y96.198 E1.96536
G1 X99.479 Y96.198 E1.96536
G1 X113.065 Y96.274 E2.39412
G1 X119.715 Y96.174 E2.60400
G1 X120.383 Y96.174 E2.62508
G1 X120.962 Y96.595 E2.64766
G1 X121.175 Y97.251 E2.66945
G1 X121.175 Y97.399 E2.67410
G1 X120.962 Y98.055 E2.69589
G1 X120.402 Y98.462 E2.71771
G1 X113.702 Y100.489 E2.93862
G1 X113.702 Y100.489 E2.93862
G1 X110.443 Y101.299 E3.04460
G1 X110.443 Y101.299 E3.04460
G1 X109.479 Y101.529 E3.07588
G1 X109.479 Y101.529 E3.07588
G1 X107.215 Y102.055 E3.14924
G1 X107.215 Y102.055 E3.14924
G1 X99.479 Y103.496 E3.39756
G1 X99.479 Y103.496 E3.39756
G1 X97.880 Y103.737 E3.44860
G1 X97.880 Y103.737 E3.44860
G1 X95.161 Y104.056 E3.53499
G1 X95.161 Y104.056 E3.53499
G1 X90.979 Y104.449 E3.66755
G1 X90.979 Y104.449 E3.66755
G1 X89.479 Y104.544 E3.71498
G1 X89.479 Y104.544 E3.71498
G1 X86.761 Y104.638 E3.80079
G1 X86.761 Y104.638 E3.80079
G1 X84.835 Y104.676 E3.86158
G1 X84.211 Y104.676 E3.88127
G1 X81.801 Y104.525 E3.95747
G1 X80.571 Y104.361 E3.99664
G1 X80.571 Y104.361 E3.99664
G1 X79.479 Y104.216 E4.03142
G1 X79.479 Y104.210 E4.03160
G1 X77.528 Y103.771 E4.09471
G1 X76.854 Y103.565 E4.11695
G1 X76.854 Y103.565 E4.11695
G1 X75.718 Y103.218 E4.15443
G1 X74.105 Y102.613 E4.20879
G1 X72.743 Y101.907 E4.25720
G1 X71.634 Y101.252 E4.29787
G1 X71.124 Y100.881 E4.31774
G1 X70.979 Y100.762 E4.32369
G1 X70.979 Y100.197 E4.34150
G1 X70.512 Y100.402 E4.35757
G1 X69.601 Y99.561 E4.39669
G1 X69.479 Y99.377 E4.40366
G1 X69.479 Y96.268 E4.50179
G1 F900.000 E3.50179
G92 E0
G1 X111.007 Y101.881 F6000.000
G1 F900.000 E1.00000
G1 X110.464 Y102.011 F961.746 E1.01762
G1 X110.464 Y102.011 E1.01762
G1 X104.488 Y103.321 E1.21071
G1 X104.488 Y103.321 E1.21071
G1 X98.672 Y104.329 E1.39698
G1 X98.454 Y104.355 E1.40390
G1 X98.454 Y104.355 E1.40390
G1 X90.235 Y105.177 E1.66459
G1 X85.142 Y105.327 E1.82538
G1 X83.912 Y105.327 E1.86420
G1 X81.522 Y105.178 E1.93977
G1 X79.283 Y104.879 E2.01103
G1 X77.295 Y104.432 E2.07533
G1 X75.505 Y103.885 E2.13441
G1 X75.390 Y103.842 E2.13830
G1 X75.390 Y103.842 E2.13830
G1 X73.918 Y103.290 E2.18790
G1 X72.580 Y102.596 E2.23548
G1 X71.489 Y101.952 E2.27544
G1 X70.499 Y101.232 E2.31408
G1 X69.656 Y100.538 E2.34856
G1 X69.022 Y99.953 E2.37578
G1 X68.643 Y99.385 E2.39732
G1 X68.127 Y97.761 E2.45107
G1 X68.172 Y97.357 E2.46391
G1 X68.542 Y96.218 E2.50171
G1 X68.765 Y95.906 E2.51378
G1 X69.740 Y95.198 E2.55181
G1 X70.214 Y94.914 E2.56926
G1 X70.598 Y94.825 E2.58171
G1 X70.598 Y94.825 E2.58171
G1 X70.833 Y94.771 E2.58930
G1 X71.666 Y94.673 E2.61578
G1 X75.134 Y94.723 E2.72525
G1 X85.391 Y95.323 E3.04949
G1 X98.390 Y95.523 E3.45977
G1 X98.390 Y95.523 E3.45977
G1 X112.758 Y95.623 E3.91319
G1 X115.813 Y95.577 E4.00962
G1 X115.813 Y95.576 E4.00962
G1 X119.408 Y95.523 E4.12308
G1 X120.594 Y95.523 E4.16051
G1 X121.515 Y96.192 E4.19645
G1 X121.798 Y97.060 E4.22526
G1 X121.798 Y97.060 E4.22526
G1 X121.884 Y97.325 E4.23404
G1 X121.798 Y97.590 E4.24282
G1 X121.798 Y97.590 E4.24282
G1 X121.515 Y98.458 E4.27163
G1 X120.575 Y99.141 E4.30833
G1 X111.080 Y101.863 E4.62003
G1 F900.000 E3.62003
G92 E0
G1 X89.360 Y103.962 F6000.000
G1 F900.000 E1.00000
G1 X89.376 Y103.988 F961.746 E1.00096
G1 X89.360 Y103.962 F6000.000
G1 X89.250 Y103.873 F961.746 E1.00544
G1 X89.246 Y103.770 F6000.000
G1 X89.332 Y103.645 F961.746 E1.01022
G1 X89.132 Y103.642 F6000.000
G1 X89.246 Y103.770 F961.746 E1.01560
G1 X89.162 Y103.958 E1.02212
G1 X89.149 Y103.985 E1.02306
G1 X90.539 Y103.469 F6000.000
G1 X90.704 Y103.638 F961.746 E1.03053
G1 X90.726 Y103.650 E1.03132
G1 X90.930 Y103.515 E1.03905
G1 X90.772 Y103.693 F6000.000
G1 X90.639 Y103.913 F961.746 E1.04718
G1 X90.777 Y103.758 F6000.000
G1 X90.862 Y103.846 F961.746 E1.05104
G1 F900.000 E0.05104
G92 E0
G1 X90.512 Y97.048 F6000.000
G1 F900.000 E1.00000
G1 X90.774 Y96.797 F961.746 E1.01146
G1 X90.655 Y96.620 E1.01819
G1 X90.777 Y96.748 F6000.000
G1 X90.799 Y96.729 F961.746 E1.01911
G1 X90.981 Y96.557 E1.02698
G1 X90.774 Y96.797 F6000.000
G1 X90.910 Y96.925 F961.746 E1.03288
G1 X90.927 Y96.957 E1.03401
G1 X89.599 Y96.413 F6000.000
G1 X89.273 Y96.720 F961.746 E1.04813
G1 X89.155 Y96.582 E1.05387
G1 X89.103 Y96.551 E1.05578
G1 X89.273 Y96.720 F6000.000
G1 X89.273 Y96.722 F961.746 E1.05585
G1 X89.397 Y96.894 E1.06255
G1 F900.000 E0.06255
G92 E0
G1 X80.936 Y96.752 F6000.000
