; generated by Slic3r 0.8.4 on 2012-08-18 at 00:41:38

; layer_height = 0.3
; perimeters = 3
; solid_layers = 3
; fill_density = .4
; nozzle_diameter = 0.5
; filament_diameter = 2.75
; extrusion_multiplier = 1.25
; perimeter_speed = 40
; infill_speed = 70
; travel_speed = 100
; scale = 1
; single wall width = 0.50mm

M107
M104 S190
G28
G1 Z2
G1 X170 F8000.0
M109 S191
G1 Z0.3
G92 E0.0
G1 E15.0 F200.0
G90
G21
G92 E0
M82
G1 Z0.300 F6000.000
G1 X61.478 Y94.834
G1 F900.000 E1.00000
G1 X61.613 Y94.877 F1525.383 E1.00448
G1 X61.613 Y99.277 E1.14333
G1 X61.323 Y99.323 E1.15259
G1 X60.625 Y97.121 E1.22547
G1 X60.695 Y96.491 E1.24550
G1 X61.030 Y95.461 E1.27967
G1 X61.434 Y94.895 E1.30163
G1 X62.754 Y95.955 F6000.000
G1 X63.053 Y95.775 F1525.383 E1.31265
G1 X63.053 Y95.775 E1.31265
G1 X63.452 Y95.536 E1.32733
G1 X63.452 Y93.809 E1.38184
G1 X63.805 Y93.727 E1.39326
G1 X64.926 Y93.595 E1.42891
G1 X68.913 Y93.661 E1.55475
G1 X74.613 Y94.102 E1.73516
G1 X74.613 Y95.744 E1.78697
G1 X76.452 Y95.846 E1.84508
G1 X76.452 Y94.209 E1.89672
G1 X87.613 Y94.489 E2.24906
G1 X87.613 Y96.107 E2.30011
G1 X89.452 Y96.142 E2.35815
G1 X89.452 Y94.525 E2.40918
G1 X100.613 Y94.725 E2.76147
G1 X100.613 Y96.342 E2.81247
G1 X102.152 Y96.368 E2.86103
G1 X102.152 Y94.752 E2.91204
G1 X113.613 Y94.830 E3.27374
G1 X113.613 Y96.438 E3.32446
G1 X115.152 Y96.438 E3.37302
G1 X115.152 Y94.830 E3.42374
G1 X118.364 Y94.830 E3.52512
G1 X127.009 Y94.700 E3.79797
G1 X128.103 Y94.700 E3.83250
G1 X129.027 Y95.371 E3.86854
G1 X129.372 Y96.434 E3.90378
G1 X129.372 Y96.611 E3.90939
G1 X129.027 Y97.674 E3.94463
G1 X128.123 Y98.331 E3.97991
G1 X115.465 Y101.950 E4.39537
G1 X115.465 Y101.950 E4.39537
G1 X115.152 Y102.025 E4.40554
G1 X115.152 Y100.293 E4.46018
G1 X113.613 Y100.659 E4.51010
G1 X113.613 Y102.391 E4.56474
G1 X102.491 Y104.612 E4.92268
G1 X102.491 Y104.612 E4.92268
G1 X102.152 Y104.668 E4.93352
G1 X102.152 Y102.974 E4.98699
G1 X100.613 Y103.230 E5.03621
G1 X100.613 Y104.925 E5.08968
G1 X99.421 Y105.117 E5.12780
G1 X99.421 Y105.117 E5.12780
G1 X89.452 Y106.142 E5.44406
G1 X89.452 Y104.496 E5.49600
G1 X88.108 Y104.596 E5.53851
G1 X88.108 Y104.596 E5.53851
G1 X87.613 Y104.618 E5.55416
G1 X87.613 Y106.246 E5.60553
G1 X81.906 Y106.405 E5.78570
G1 X80.856 Y106.405 E5.81885
G1 X77.726 Y106.209 E5.91782
G1 X76.452 Y106.039 E5.95838
G1 X76.452 Y104.362 E6.01130
G1 X75.311 Y104.210 E6.04761
G1 X74.613 Y104.053 E6.07019
G1 X74.613 Y105.778 E6.12462
G1 X72.177 Y105.230 E6.20343
G1 X69.827 Y104.512 E6.28097
G1 X67.734 Y103.727 E6.35150
G1 X65.968 Y102.811 E6.41431
G1 X64.528 Y101.960 E6.46708
G1 X63.673 Y101.339 E6.50041
G1 X63.452 Y101.157 E6.50947
G1 X63.452 Y98.990 E6.57785
G1 X63.068 Y98.636 E6.59435
G1 X62.525 Y97.822 E6.62520
G1 X62.315 Y97.121 E6.64829
G1 X62.374 Y96.595 E6.66500
G1 X62.374 Y96.595 E6.66500
G1 X62.388 Y96.467 E6.66906
G1 X62.710 Y96.016 E6.68656
G1 F900.000 E5.68656
G92 E0
G1 X88.113 Y105.097 F6000.000
G1 F900.000 E1.00000
G1 X88.952 Y105.034 F1525.383 E1.02655
G1 X88.952 Y106.645 E1.07738
G1 X88.113 Y106.678 E1.10387
G1 X88.113 Y105.172 E1.15142
G1 F900.000 E0.15142
G92 E0
G1 X75.952 Y104.800 F6000.000
G1 F900.000 E1.00000
G1 X75.952 Y106.456 F1525.383 E1.05225
G1 X75.113 Y106.344 E1.07896
G1 X75.113 Y104.688 E1.13122
G1 X75.878 Y104.790 E1.15556
G1 F900.000 E0.15556
G92 E0
G1 X101.113 Y105.334 F6000.000
G1 F900.000 E1.00000
G1 X101.113 Y103.654 F1525.383 E1.05302
G1 X101.652 Y103.564 E1.07026
G1 X101.652 Y105.244 E1.12329
G1 X101.187 Y105.321 E1.13816
G1 F900.000 E0.13816
G92 E0
G1 X114.113 Y102.782 F6000.000
G1 F900.000 E1.00000
G1 X114.113 Y101.054 F1525.383 E1.05452
G1 X114.652 Y100.926 E1.07201
G1 X114.652 Y102.654 E1.12653
G1 X114.186 Y102.765 E1.14165
G1 F900.000 E0.14165
G92 E0
G1 X62.952 Y101.127 F6000.000
G1 F900.000 E1.00000
G1 X62.788 Y101.204 F1525.383 E1.00573
G1 X62.036 Y100.585 E1.03647
G1 X61.381 Y99.981 E1.06459
G1 X61.432 Y99.812 E1.07017
G1 X62.113 Y99.704 E1.09192
G1 X62.113 Y98.559 E1.12804
G1 X62.365 Y98.483 E1.13635
G1 X62.685 Y98.962 E1.15454
G1 X62.952 Y99.209 E1.16601
G1 X62.952 Y101.052 E1.22417
G1 F900.000 E0.22417
G92 E0
G1 X114.113 Y95.938 F6000.000
G1 F900.000 E1.00000
G1 X114.113 Y94.394 F1525.383 E1.04873
G1 X114.652 Y94.394 E1.06574
G1 X114.652 Y95.938 E1.11446
G1 X114.188 Y95.938 E1.12910
G1 F900.000 E0.12910
G92 E0
G1 X101.652 Y95.859 F6000.000
G1 F900.000 E1.00000
G1 X101.113 Y95.850 F1525.383 E1.01701
G1 X101.113 Y94.291 E1.06623
G1 X101.652 Y94.300 E1.08324
G1 X101.652 Y95.784 E1.13009
G1 F900.000 E0.13009
G92 E0
G1 X88.952 Y95.633 F6000.000
G1 F900.000 E1.00000
G1 X88.113 Y95.617 F1525.383 E1.02648
G1 X88.113 Y94.055 E1.07577
G1 X88.952 Y94.072 E1.10225
G1 X88.952 Y95.558 E1.14915
G1 F900.000 E0.14915
G92 E0
G1 X62.952 Y95.253 F6000.000
G1 F900.000 E1.00000
G1 X62.242 Y95.679 F1525.383 E1.02614
G1 X62.113 Y95.606 E1.03081
G1 X62.113 Y94.512 E1.06533
G1 X61.702 Y94.381 E1.07895
G1 X61.675 Y94.215 E1.08426
G1 X62.292 Y93.766 E1.10832
G1 X62.823 Y93.448 E1.12786
G1 X62.952 Y93.521 E1.13253
G1 X62.952 Y95.178 E1.18484
G1 F900.000 E0.18484
G92 E0
G1 X75.113 Y95.271 F6000.000
G1 F900.000 E1.00000
G1 X75.113 Y93.677 F1525.383 E1.05029
G1 X75.952 Y93.724 E1.07680
G1 X75.952 Y95.317 E1.12709
G1 X75.188 Y95.275 E1.15124
G1 F900.000 E0.15124
G92 E0
G1 X75.146 Y93.178 F6000.000
G1 F900.000 E1.00000
G1 X117.965 Y93.894 F1525.383 E2.35148
G1 X122.010 Y93.832 E2.47915
G1 X122.010 Y93.832 E2.47915
G1 X126.610 Y93.764 E2.62433
G1 X128.408 Y93.764 E2.68107
G1 X129.824 Y94.793 E2.73631
G1 X130.373 Y96.481 E2.79234
G1 X130.373 Y96.564 E2.79495
G1 X129.824 Y98.252 E2.85098
G1 X128.388 Y99.295 E2.90698
G1 X111.849 Y103.835 E3.44823
G1 X111.804 Y103.844 E3.44968
G1 X111.804 Y103.844 E3.44968
G1 X107.714 Y104.687 E3.58146
G1 X107.714 Y104.687 E3.58146
G1 X99.900 Y106.043 E3.83173
G1 X88.928 Y107.146 E4.17974
G1 X82.305 Y107.341 E4.38884
G1 X80.463 Y107.341 E4.44696
G1 X77.353 Y107.147 E4.54530
G1 X74.440 Y106.758 E4.63805
G1 X72.153 Y106.244 E4.71202
G1 X72.153 Y106.268 E4.71279
G1 X69.522 Y105.464 E4.79962
G1 X67.455 Y104.689 E4.86929
G1 X65.711 Y103.785 E4.93127
G1 X64.291 Y102.946 E4.98333
G1 X62.805 Y101.866 E5.04128
G1 X61.707 Y100.962 E5.08618
G1 X60.878 Y100.197 E5.12177
G1 X60.380 Y99.449 E5.15014
G1 X59.630 Y97.094 E5.22814
G1 X59.690 Y96.554 E5.24527
G1 X60.249 Y94.833 E5.30237
G1 X60.546 Y94.417 E5.31852
G1 X62.016 Y93.349 E5.37586
G1 X62.640 Y92.975 E5.39883
G1 X63.454 Y92.787 E5.42519
G1 X64.542 Y92.659 E5.45976
G1 X69.298 Y92.724 E5.60985
G1 X75.071 Y93.172 E5.79258
M106 S255
M104 S185
G1 F900.000 E4.79258
G92 E0
G1 Z0.600 F6000.000
G1 X61.313 Y95.526
G1 F900.000 E1.00000
G1 X61.313 Y98.360 F1567.586 E1.08941
G1 X61.010 Y98.404 E1.09908
G1 X60.625 Y97.121 E1.14135
G1 X60.695 Y96.491 E1.16137
G1 X61.023 Y95.480 E1.19490
G1 X61.239 Y95.515 E1.20179
G1 X62.388 Y96.467 F6000.000
G1 X62.754 Y95.955 F1567.586 E1.22165
G1 X63.451 Y95.537 E1.24730
G1 X63.752 Y95.467 E1.25706
G1 X63.752 Y93.734 E1.31177
G1 X64.926 Y93.595 E1.34909
G1 X68.913 Y93.661 E1.47493
G1 X74.313 Y94.075 E1.64584
G1 X74.313 Y95.727 E1.69798
G1 X76.274 Y95.836 E1.75995
G1 X76.274 Y95.836 E1.75995
G1 X76.752 Y95.862 E1.77506
G1 X76.752 Y94.226 E1.82670
G1 X87.313 Y94.483 E2.16009
G1 X87.313 Y96.101 E2.21114
G1 X89.752 Y96.148 E2.28812
G1 X89.752 Y94.531 E2.33915
G1 X100.313 Y94.720 E2.67250
G1 X100.313 Y96.336 E2.72350
G1 X101.852 Y96.363 E2.77207
G1 X101.852 Y94.746 E2.82307
G1 X113.313 Y94.830 E3.18477
G1 X113.313 Y96.438 E3.23550
G1 X114.852 Y96.438 E3.28405
G1 X114.852 Y94.830 E3.33478
G1 X118.364 Y94.830 E3.44562
G1 X127.009 Y94.700 E3.71847
G1 X128.103 Y94.700 E3.75300
G1 X129.027 Y95.371 E3.78904
G1 X129.372 Y96.434 E3.82428
G1 X129.372 Y96.611 E3.82989
G1 X129.027 Y97.673 E3.86513
G1 X128.123 Y98.331 E3.90041
G1 X114.852 Y102.096 E4.33575
G1 X114.852 Y100.364 E4.39040
G1 X113.313 Y100.731 E4.44031
G1 X113.313 Y102.462 E4.49496
G1 X101.852 Y104.718 E4.86359
G1 X101.852 Y103.024 E4.91706
G1 X100.313 Y103.280 E4.96629
G1 X100.313 Y104.975 E5.01976
G1 X99.187 Y105.145 E5.05570
G1 X99.187 Y105.145 E5.05570
G1 X89.752 Y106.120 E5.35504
G1 X89.752 Y104.474 E5.40699
G1 X87.313 Y104.630 E5.48410
G1 X87.313 Y106.258 E5.53547
G1 X81.906 Y106.405 E5.70617
G1 X80.856 Y106.405 E5.73932
G1 X77.726 Y106.209 E5.83829
G1 X76.752 Y106.079 E5.86930
G1 X76.752 Y104.402 E5.92222
G1 X75.311 Y104.210 E5.96808
G1 X74.313 Y103.986 E6.00036
G1 X74.313 Y105.710 E6.05480
G1 X72.177 Y105.230 E6.12390
G1 X71.626 Y105.062 E6.14207
G1 X71.626 Y105.062 E6.14207
G1 X69.827 Y104.512 E6.20144
G1 X69.755 Y104.485 E6.20387
G1 X69.755 Y104.485 E6.20387
G1 X67.734 Y103.727 E6.27197
G1 X65.968 Y102.811 E6.33478
G1 X64.528 Y101.960 E6.38755
G1 X63.752 Y101.396 E6.41782
G1 X63.752 Y99.267 E6.48502
G1 X63.068 Y98.636 E6.51440
G1 X62.525 Y97.822 E6.54526
G1 X62.315 Y97.121 E6.56834
G1 X62.354 Y96.773 E6.57939
G1 X62.354 Y96.773 E6.57939
G1 X62.380 Y96.542 E6.58675
G1 F900.000 E5.58675
G92 E0
G1 X62.242 Y99.234 F6000.000
G1 F900.000 E1.00000
G1 X62.752 Y99.705 F1567.586 E1.02191
G1 X62.752 Y100.322 E1.04139
G1 X62.573 Y100.400 E1.04756
G1 X61.590 Y99.493 E1.08978
G1 X61.643 Y99.322 E1.09544
G1 X62.168 Y99.245 E1.11218
G1 F900.000 E0.11218
G92 E0
G1 X87.813 Y105.111 F6000.000
G1 F900.000 E1.00000
G1 X89.252 Y105.012 F1567.586 E1.04551
G1 X89.252 Y106.621 E1.09629
G1 X87.813 Y106.690 E1.14175
G1 X87.813 Y105.186 E1.18923
G1 F900.000 E0.18923
G92 E0
G1 X76.252 Y104.840 F6000.000
G1 F900.000 E1.00000
G1 X76.252 Y106.496 F1567.586 E1.05225
G1 X74.813 Y106.304 E1.09807
G1 X74.813 Y104.611 E1.15150
G1 X75.223 Y104.703 E1.16477
G1 X75.347 Y104.719 E1.16872
G1 X75.347 Y104.719 E1.16872
G1 X76.178 Y104.830 E1.19516
G1 F900.000 E0.19516
G92 E0
G1 X100.813 Y104.693 F6000.000
G1 F900.000 E1.00000
G1 X100.813 Y103.704 F1567.586 E1.03121
G1 X101.352 Y103.614 E1.04845
G1 X101.352 Y105.294 E1.10147
G1 X100.813 Y105.384 E1.11871
G1 X100.813 Y104.767 E1.13816
G1 F900.000 E0.13816
G92 E0
G1 X113.813 Y102.853 F6000.000
G1 F900.000 E1.00000
G1 X113.813 Y101.126 F1567.586 E1.05452
G1 X114.352 Y100.997 E1.07201
G1 X114.352 Y102.725 E1.12653
G1 X113.886 Y102.836 E1.14165
G1 F900.000 E0.14165
G92 E0
G1 X63.252 Y101.374 F6000.000
G1 F900.000 E1.00000
G1 X63.088 Y101.451 F1567.586 E1.00573
G1 X62.036 Y100.585 E1.04874
G1 X61.261 Y99.870 E1.08200
G1 X60.655 Y98.961 E1.11646
G1 X61.813 Y98.792 E1.15339
G1 X61.813 Y98.109 E1.17492
G1 X62.065 Y98.033 E1.18323
G1 X62.685 Y98.962 E1.21848
G1 X63.252 Y99.486 E1.24284
G1 X63.252 Y101.299 E1.30006
G1 F900.000 E0.30006
G92 E0
G1 X113.813 Y95.938 F6000.000
G1 F900.000 E1.00000
G1 X113.813 Y94.394 F1567.586 E1.04873
G1 X114.352 Y94.394 E1.06574
G1 X114.352 Y95.938 E1.11446
G1 X113.888 Y95.938 E1.12910
G1 F900.000 E0.12910
G92 E0
G1 X63.252 Y95.073 F6000.000
G1 F900.000 E1.00000
G1 X62.407 Y95.580 F1567.586 E1.03109
G1 X62.054 Y96.074 E1.05025
G1 X61.813 Y95.997 E1.05825
G1 X61.813 Y95.099 E1.08656
G1 X60.966 Y94.965 E1.11362
G1 X60.918 Y94.765 E1.12012
G1 X62.436 Y93.662 E1.17935
G1 X62.448 Y93.673 E1.17986
G1 X62.830 Y93.444 E1.19392
G1 X63.252 Y93.346 E1.20759
G1 X63.252 Y94.998 E1.25971
G1 F900.000 E0.25971
G92 E0
G1 X100.813 Y94.285 F6000.000
G1 F900.000 E1.00000
G1 X101.352 Y94.295 F1567.586 E1.01701
G1 X101.352 Y95.854 E1.06622
G1 X100.813 Y95.845 E1.08323
G1 X100.813 Y94.360 E1.13008
G1 F900.000 E0.13008
G92 E0
G1 X89.252 Y94.077 F6000.000
G1 F900.000 E1.00000
G1 X89.252 Y95.638 F1567.586 E1.04927
G1 X87.813 Y95.611 E1.09469
G1 X87.813 Y94.049 E1.14400
G1 X89.177 Y94.076 E1.18705
G1 F900.000 E0.18705
G92 E0
G1 X76.252 Y93.740 F6000.000
G1 F900.000 E1.00000
G1 X76.252 Y95.334 F1567.586 E1.05029
G1 X75.774 Y95.307 E1.06539
G1 X75.774 Y95.307 E1.06539
G1 X75.099 Y95.270 E1.08672
G1 X75.099 Y95.270 E1.08672
G1 X74.813 Y95.254 E1.09576
G1 X74.813 Y93.650 E1.14638
G1 X76.177 Y93.736 E1.18951
G1 X75.146 Y93.178 F6000.000
G1 X99.529 Y93.764 F1567.586 E1.95923
G1 X99.529 Y93.764 E1.95923
G1 X117.965 Y93.894 E2.54104
G1 X122.010 Y93.832 E2.66871
G1 X122.010 Y93.832 E2.66871
G1 X126.610 Y93.764 E2.81389
G1 X128.408 Y93.764 E2.87063
G1 X129.824 Y94.793 E2.92587
G1 X130.373 Y96.481 E2.98191
G1 X130.373 Y96.564 E2.98451
G1 X129.824 Y98.252 E3.04054
G1 X128.388 Y99.295 E3.09654
G1 X111.849 Y103.835 E3.63779
G1 X99.900 Y106.043 E4.02125
G1 X88.928 Y107.146 E4.36926
G1 X82.305 Y107.341 E4.57836
G1 X80.463 Y107.341 E4.63648
G1 X77.353 Y107.147 E4.73482
G1 X74.440 Y106.758 E4.82757
G1 X72.099 Y106.232 E4.90328
G1 X72.099 Y106.252 E4.90391
G1 X69.522 Y105.464 E4.98896
G1 X67.455 Y104.689 E5.05864
G1 X65.711 Y103.785 E5.12061
G1 X64.518 Y103.080 E5.16437
G1 X64.493 Y103.092 E5.16525
G1 X62.805 Y101.866 E5.23107
G1 X61.707 Y100.962 E5.27596
G1 X60.878 Y100.197 E5.31156
G1 X60.380 Y99.449 E5.33993
G1 X59.630 Y97.094 E5.41793
G1 X59.690 Y96.554 E5.43506
G1 X60.249 Y94.833 E5.49216
G1 X60.546 Y94.417 E5.50831
G1 X62.016 Y93.349 E5.56565
G1 X62.640 Y92.975 E5.58862
G1 X63.433 Y92.792 E5.61429
G1 X63.433 Y92.792 E5.61429
G1 X63.454 Y92.787 E5.61498
G1 X64.542 Y92.659 E5.64955
G1 X69.298 Y92.724 E5.79964
G1 X75.071 Y93.172 E5.98237
G1 X75.531 Y94.422 F6000.000
G1 X75.534 Y94.572 F2743.275 E5.98710
G1 F900.000 E4.98710
G92 E0
G1 X75.542 Y105.468 F6000.000
G1 F900.000 E1.00000
G1 X75.519 Y105.543 F2743.275 E1.00246
G1 X75.536 Y105.672 E1.00657
G1 F900.000 E0.00657
G92 E0
G1 X88.522 Y105.939 F6000.000
G1 F900.000 E1.00000
G1 X88.527 Y105.936 F2743.275 E1.00020
G1 X88.528 Y105.793 E1.00471
G1 F900.000 E0.00471
G92 E0
G1 X62.473 Y94.768 F6000.000
G1 F900.000 E1.00000
G1 X62.482 Y94.541 F2743.275 E1.00717
G1 X62.463 Y94.520 E1.00803
G1 X62.342 Y94.501 E1.01192
G1 F900.000 E0.01192
G92 E0
G1 Z0.900 F6000.000
G1 X63.051 Y95.777
G1 F900.000 E1.00000
G1 X63.451 Y95.537 F1686.972 E1.01472
G1 X64.052 Y95.398 E1.03419
G1 X64.052 Y93.698 E1.08783
G1 X64.926 Y93.595 E1.11563
G1 X68.913 Y93.661 E1.24146
G1 X74.013 Y94.047 E1.40286
G1 X74.013 Y95.710 E1.45534
G1 X75.635 Y95.800 E1.50661
G1 X75.635 Y95.800 E1.50661
G1 X77.052 Y95.878 E1.55138
G1 X77.052 Y94.243 E1.60297
G1 X87.013 Y94.477 E1.91742
G1 X87.013 Y96.095 E1.96847
G1 X90.052 Y96.154 E2.06438
G1 X90.052 Y94.536 E2.11542
G1 X100.013 Y94.715 E2.42983
G1 X100.013 Y96.331 E2.48083
G1 X101.552 Y96.357 E2.52939
G1 X101.552 Y94.741 E2.58040
G1 X113.013 Y94.830 E2.94210
G1 X113.013 Y96.438 E2.99283
G1 X114.552 Y96.438 E3.04138
G1 X114.552 Y94.830 E3.09211
G1 X118.364 Y94.830 E3.21241
G1 X127.009 Y94.700 E3.48527
G1 X128.103 Y94.700 E3.51980
G1 X129.027 Y95.371 E3.55583
G1 X129.372 Y96.434 E3.59108
G1 X129.372 Y96.611 E3.59668
G1 X129.027 Y97.674 E3.63193
G1 X128.123 Y98.331 E3.66721
G1 X123.713 Y99.705 E3.81297
G1 X123.713 Y99.705 E3.81297
G1 X123.553 Y99.753 E3.81825
G1 X123.553 Y99.753 E3.81825
G1 X119.488 Y100.946 E3.95193
G1 X119.488 Y100.946 E3.95193
G1 X115.495 Y101.943 E4.08183
G1 X115.495 Y101.943 E4.08183
G1 X115.380 Y101.970 E4.08554
G1 X115.380 Y101.970 E4.08554
G1 X114.552 Y102.167 E4.11242
G1 X114.552 Y100.436 E4.16706
G1 X113.013 Y100.802 E4.21698
G1 X113.013 Y102.534 E4.27163
G1 X111.317 Y102.931 E4.32659
G1 X111.317 Y102.931 E4.32659
G1 X102.548 Y104.602 E4.60833
G1 X102.548 Y104.602 E4.60833
G1 X101.552 Y104.768 E4.64018
G1 X101.552 Y103.074 E4.69365
G1 X100.013 Y103.330 E4.74288
G1 X100.013 Y105.025 E4.79635
G1 X98.954 Y105.173 E4.83011
G1 X98.954 Y105.173 E4.83011
G1 X90.052 Y106.098 E5.11255
G1 X90.052 Y104.452 E5.16449
G1 X87.013 Y104.642 E5.26057
G1 X87.013 Y106.269 E5.31194
G1 X81.906 Y106.405 E5.47316
G1 X80.856 Y106.405 E5.50632
G1 X77.726 Y106.209 E5.60528
G1 X77.052 Y106.119 E5.62674
G1 X77.052 Y104.442 E5.67966
G1 X75.311 Y104.210 E5.73508
G1 X74.013 Y103.918 E5.77706
G1 X74.013 Y105.643 E5.83149
G1 X72.177 Y105.230 E5.89089
G1 X71.478 Y105.016 E5.91395
G1 X71.478 Y105.016 E5.91395
G1 X69.827 Y104.512 E5.96843
G1 X67.734 Y103.727 E6.03897
G1 X65.968 Y102.811 E6.10177
G1 X64.528 Y101.960 E6.15454
G1 X64.052 Y101.614 E6.17311
G1 X64.052 Y99.532 E6.23884
G1 X63.929 Y99.431 E6.24386
G1 X63.068 Y98.636 E6.28085
G1 X62.525 Y97.822 E6.31170
G1 X62.315 Y97.121 E6.33479
G1 X62.388 Y96.467 E6.35556
G1 X62.754 Y95.955 E6.37542
